X: 030704
T: Caherconnell
N: in book as "The Kerry Jig"
S: "The Ted Furey Collection of Irish Traditional Tunes"
Z: B.Black
L: 1/8
M: 6/8
R: jig
K: Amix
A/B/ | cBA eBd | cAA A2 B | cBA efg | dBG G2 B |
cBA eBd | cea e2 d | cBA GAB | cAA A2 :|
e | aeg fdB | cAA A2 B | cBA efg | dBG G2 e |
aeg fdB | ecA e2 d | cBA GAB | cAA A2 :|
e | aeg fdB | cAA A2 B | cBA efg | dBG G2 e |
aeg fdB | ecA BGE | Ace dBG | EDB, A,2 :|
